img/fukidashi_bad.svg

<svg height="91" viewBox="0 0 304 91" width="304" xmlns="http://www.w3.org/2000/svg"><path d="m286.581919 44.197985c0-4.745897 5.418081-4.745897 5.418081-9.4917939s-5.418081-4.7458969-5.418081-9.4917939c0-2.562202 3.266219-5.3573315 2.26714-7.6574901-1.037505-2.3875065-5.687064-2.7077817-7.608369-4.716781-1.959732-2.0089993-2.267141-5.93965019-4.918542-7.42456272-2.651402-1.45579661-4.956968.32027525-9.952363-.9899417-3.035662-.8152461-4.841689-4.10534643-8.223187-4.10534643-6.263455 0-5.648638 3.78507118-11.912093 3.78507118-6.263456 0-6.263456-4.10534643-12.526912-4.10534643s-6.263456 4.10534643-12.526911 4.10534643c-6.263456 0-6.263456-4.10534643-12.526912-4.10534643-6.263455 0-6.263455 4.10534643-12.526911 4.10534643s-6.263456-4.10534643-12.526912-4.10534643c-6.263455 0-6.263455 4.10534643-12.526911 4.10534643s-6.263456-4.10534643-12.526912-4.10534643c-6.263455 0-6.263455 4.10534643-12.526911 4.10534643s-6.263456-4.10534643-12.526911-4.10534643c-6.263456 0-6.263456 4.10534643-12.526912 4.10534643s-6.263456-4.10534643-12.526911-4.10534643c-6.263456 0-6.263456 4.10534643-12.5269117 4.10534643s-6.2634557-4.10534643-12.5269114-4.10534643-6.2634557 4.10534643-12.5269115 4.10534643c-6.2634557 0-6.3018818-4.10534643-12.5653375-4.10534643s-6.2634557 4.10534643-12.5269114 4.10534643c-6.2634558 0-5.648638-3.78507118-11.9120937-3.78507118-3.3814976 0-5.1875247 3.29010033-8.2231873 4.10534643-4.956968 1.31021695-7.3009607-.46585491-9.9523622.9899417-2.6514015 1.48491253-2.9972364 5.38644742-4.9185419 7.42456272-1.9213054 2.0089993-6.57086455 2.3001586-7.60836949 4.716781-.99907882 2.3292745 2.26714042 5.0952881 2.26714042 7.6574901 0 4.745897-5.41808133 4.745897-5.41808133 9.4917939s5.41808133 4.7458969 5.41808133 9.4917939c0 4.7458969-5.41808133 4.7458969-5.41808133 9.4917938 0 4.745897 5.41808133 4.745897 5.41808133 9.4917939 0 2.5622021-3.26621924 5.3573315-2.26714042 7.6574902 1.03750494 2.3875064 5.68706409 2.7077817 7.60836949 4.716781 1.9597316 2.0089993 2.2671404 5.9396501 4.9185419 7.4245627 2.6514015 1.4557966 4.9569681-.3202753 9.9523622.9899417 3.0356626.8152461 4.8416897 4.1053464 8.2231873 4.1053464 6.2634557 0 5.6486379-3.7850712 11.9120937-3.7850712 6.2634557 0 6.2634557 4.1053464 12.5269114 4.1053464s6.2634557-4.1053464 12.5269114-4.1053464 6.2634557 4.1053464 12.5269115 4.1053464c6.2634557 0 6.2634557-4.1053464 12.5269114-4.1053464 6.2634558 0 6.2634558 4.1053464 12.5269118 4.1053464 6.263455 0 6.263455-4.1053464 12.526911-4.1053464s6.263456 4.1053464 12.526912 4.1053464c6.263455 0 6.263455-4.1053464 12.526911-4.1053464s6.263456 4.1053464 12.526911 4.1053464c6.263456 0 6.532439-2.7368976 12.526912-4.1053464 9.068561-2.0672312 9.068561 7.8947099 14.709615 3.7850712 4.304553-3.1359676 9.92152-4.4838536 14.76321-3.0862888 2.343993.6696664 3.189367 3.0571729 8.069483 3.406564 6.22503.436739 6.263456-4.1053464 12.526911-4.1053464 6.263456 0 6.263456 4.1053464 12.526912 4.1053464s6.263456-4.1053464 12.526911-4.1053464c6.263456 0 5.648638 3.7850712 11.912094 3.7850712 3.381498 0 5.187525-3.2901003 8.223187-4.1053464 2.879121-.761004 12.653873 1.4186351 20.212133 4.1053464 5.454761 1.9389867 14.383527-1.4654581 15.494934-2.0756947.514117-.2879305-6.859291 1.2559633-13.227793-1.0105941-2.088479-.7432921-5.257678-2.7397608-9.507597-5.9894059.54109-1.5269609 1.174166-2.6750129 1.899227-3.4441561 1.921306-2.0089993 6.570865-2.3001587 7.60837-4.716781.999079-2.3292746-2.267141-5.0952881-2.267141-7.6574902 0-4.7458969 5.418082-4.7458969 5.418082-9.4917939.076852-4.7458969-5.341229-4.7458969-5.341229-9.4917938z" fill="#fff" stroke="#000" transform="translate(1 1)"/></svg>

<?xml version="1.0" encoding="UTF-8"?>
<svg width="304px" height="91px" viewBox="0 0 304 91" version="1.1" xmlns="http://www.w3.org/2000/svg" xmlns:xlink="http://www.w3.org/1999/xlink">
    <title>e0707_0</title>
    <g id="desktop" stroke="none" stroke-width="1" fill="none" fill-rule="evenodd">
        <g id="Desktop-micro_feature_badpoint" transform="translate(-57.000000, -425.000000)" fill="#FFFFFF" fill-rule="nonzero" stroke="#000000">
            <g id="e0707_0" transform="translate(58.000000, 426.000000)">
                <path d="M286.581919,44.197985 C286.581919,39.452088 292,39.452088 292,34.7061911 C292,29.9602942 286.581919,29.9602942 286.581919,25.2143972 C286.581919,22.6521952 289.848138,19.8570657 288.849059,17.5569071 C287.811554,15.1694006 283.161995,14.8491254 281.24069,12.8401261 C279.280958,10.8311268 278.973549,6.90047591 276.322148,5.41556338 C273.670746,3.95976677 271.36518,5.73583863 266.369785,4.42562168 C263.334123,3.61037558 261.528096,0.320275253 258.146598,0.320275253 C251.883143,0.320275253 252.49796,4.10534643 246.234505,4.10534643 C239.971049,4.10534643 239.971049,0 233.707593,0 C227.444137,0 227.444137,4.10534643 221.180682,4.10534643 C214.917226,4.10534643 214.917226,0 208.65377,0 C202.390315,0 202.390315,4.10534643 196.126859,4.10534643 C189.863403,4.10534643 189.863403,0 183.599947,0 C177.336492,0 177.336492,4.10534643 171.073036,4.10534643 C164.80958,4.10534643 164.80958,0 158.546124,0 C152.282669,0 152.282669,4.10534643 146.019213,4.10534643 C139.755757,4.10534643 139.755757,0 133.492302,0 C127.228846,0 127.228846,4.10534643 120.96539,4.10534643 C114.701934,4.10534643 114.701934,0 108.438479,0 C102.175023,0 102.175023,4.10534643 95.9115673,4.10534643 C89.6481116,4.10534643 89.6481116,0 83.3846559,0 C77.1212002,0 77.1212002,4.10534643 70.8577444,4.10534643 C64.5942887,4.10534643 64.5558626,0 58.2924069,0 C52.0289512,0 52.0289512,4.10534643 45.7654955,4.10534643 C39.5020397,4.10534643 40.1168575,0.320275253 33.8534018,0.320275253 C30.4719042,0.320275253 28.6658771,3.61037558 25.6302145,4.42562168 C20.6732465,5.73583863 18.3292538,3.95976677 15.6778523,5.41556338 C13.0264508,6.90047591 12.6806159,10.8020108 10.7593104,12.8401261 C8.838005,14.8491254 4.18844585,15.1402847 3.15094091,17.5569071 C2.15186209,19.8861816 5.41808133,22.6521952 5.41808133,25.2143972 C5.41808133,29.9602942 0,29.9602942 0,34.7061911 C0,39.452088 5.41808133,39.452088 5.41808133,44.197985 C5.41808133,48.9438819 0,48.9438819 0,53.6897788 C0,58.4356758 5.41808133,58.4356758 5.41808133,63.1815727 C5.41808133,65.7437748 2.15186209,68.5389042 3.15094091,70.8390629 C4.18844585,73.2265693 8.838005,73.5468446 10.7593104,75.5558439 C12.719042,77.5648432 13.0264508,81.495494 15.6778523,82.9804066 C18.3292538,84.4362032 20.6348204,82.6601313 25.6302145,83.9703483 C28.6658771,84.7855944 30.4719042,88.0756947 33.8534018,88.0756947 C40.1168575,88.0756947 39.5020397,84.2906235 45.7654955,84.2906235 C52.0289512,84.2906235 52.0289512,88.3959699 58.2924069,88.3959699 C64.5558626,88.3959699 64.5558626,84.2906235 70.8193183,84.2906235 C77.082774,84.2906235 77.082774,88.3959699 83.3462298,88.3959699 C89.6096855,88.3959699 89.6096855,84.2906235 95.8731412,84.2906235 C102.136597,84.2906235 102.136597,88.3959699 108.400053,88.3959699 C114.663508,88.3959699 114.663508,84.2906235 120.926964,84.2906235 C127.19042,84.2906235 127.19042,88.3959699 133.453876,88.3959699 C139.717331,88.3959699 139.717331,84.2906235 145.980787,84.2906235 C152.244243,84.2906235 152.244243,88.3959699 158.507698,88.3959699 C164.771154,88.3959699 165.040137,85.6590723 171.03461,84.2906235 C180.103171,82.2233923 180.103171,92.1853334 185.744225,88.0756947 C190.048778,84.9397271 195.665745,83.5918411 200.507435,84.9894059 C202.851428,85.6590723 203.696802,88.0465788 208.576918,88.3959699 C214.801948,88.8327089 214.840374,84.2906235 221.103829,84.2906235 C227.367285,84.2906235 227.367285,88.3959699 233.630741,88.3959699 C239.894197,88.3959699 239.894197,84.2906235 246.157652,84.2906235 C252.421108,84.2906235 251.80629,88.0756947 258.069746,88.0756947 C261.451244,88.0756947 263.257271,84.7855944 266.292933,83.9703483 C269.172054,83.2093443 278.946806,85.3889834 286.505066,88.0756947 C291.959827,90.0146814 300.888593,86.6102366 302,86 C302.514117,85.7120695 295.140709,87.2559633 288.772207,84.9894059 C286.683728,84.2461138 283.514529,82.2496451 279.26461,79 C279.8057,77.4730391 280.438776,76.3249871 281.163837,75.5558439 C283.085143,73.5468446 287.734702,73.2556852 288.772207,70.8390629 C289.771286,68.5097883 286.505066,65.7437748 286.505066,63.1815727 C286.505066,58.4356758 291.923148,58.4356758 291.923148,53.6897788 C292,48.9438819 286.581919,48.9438819 286.581919,44.197985 Z" id="Path"></path>
            </g>
        </g>
    </g>
</svg>
